X: 4415
T: Bonfire, The
R: strathspey
M: 4/4
K: Gminor
f|d<G d>c d<G B>G|f>d c<f A<F F<f|d<G d>c d<G B>G|b>g a>fg2g:|
f|d<gg2d>g B<G|f>d c>f A<F F<f|d<gg2d<g g>a|b>g a>fg2g>a|
b>a g>g (3fgf d>g|f>d c<f A<F F<f|d<G d>c d<G B>G|b>g a>fg2g||

